apps/wow-docs/public/component/radiobutton/spacing.svg

<svg width="908" height="140" viewBox="0 0 908 140" fill="none" xmlns="http://www.w3.org/2000/svg">
<rect width="908" height="140" fill="white"/>
<circle cx="417" cy="40" r="9.5" fill="#EBF4FE" stroke="#368FF7"/>
<circle cx="417" cy="40" r="5" fill="#368FF7"/>
<path d="M443.358 35.928H440.25V45.056H439.018V35.928H435.896V34.836H443.358V35.928ZM448.775 40.968C448.71 40.3707 448.514 39.8713 448.187 39.47C447.87 39.0593 447.389 38.854 446.745 38.854C446.157 38.854 445.653 39.0547 445.233 39.456C444.822 39.848 444.575 40.3567 444.491 40.982L448.775 40.968ZM443.273 41.444C443.273 40.7347 443.418 40.1047 443.707 39.554C443.996 39.0033 444.402 38.574 444.925 38.266C445.448 37.958 446.04 37.804 446.703 37.804C448.094 37.804 449.088 38.4573 449.685 39.764C449.881 40.2867 449.979 40.842 449.979 41.43C449.979 41.5887 449.974 41.7193 449.965 41.822C449.956 41.9153 449.951 41.9667 449.951 41.976H444.491C444.584 42.5827 444.836 43.0773 445.247 43.46C445.667 43.8427 446.157 44.034 446.717 44.034C447.165 44.034 447.534 43.964 447.823 43.824C448.122 43.684 448.327 43.5487 448.439 43.418C448.56 43.278 448.668 43.138 448.761 42.998L449.741 43.502C449.526 43.9407 449.158 44.314 448.635 44.622C448.122 44.93 447.478 45.084 446.703 45.084C446.04 45.084 445.448 44.93 444.925 44.622C444.402 44.314 443.996 43.8847 443.707 43.334C443.418 42.7833 443.273 42.1533 443.273 41.444ZM454.833 41.444L457.535 45.056H456.009L454.147 42.48L452.313 45.056H450.773L453.447 41.444L450.745 37.818H452.299L454.147 40.436L456.009 37.818H457.549L454.833 41.444ZM461.452 45.084C460.855 45.084 460.365 44.888 459.982 44.496C459.6 44.104 459.399 43.6 459.38 42.984V38.938H458.176V37.86H459.38V35.942H460.612V37.86H462.166V38.938H460.612V42.9C460.612 43.18 460.692 43.4227 460.85 43.628C461.009 43.8333 461.21 43.936 461.452 43.936C461.592 43.936 461.718 43.9267 461.83 43.908C461.942 43.8893 462.054 43.866 462.166 43.838L462.39 44.972C462.036 45.0467 461.723 45.084 461.452 45.084Z" fill="#121212"/>
<circle cx="417" cy="70" r="9.5" fill="#EBF4FE" stroke="#368FF7"/>
<circle cx="417" cy="70" r="5" fill="#368FF7"/>
<path d="M443.358 65.928H440.25V75.056H439.018V65.928H435.896V64.836H443.358V65.928ZM448.775 70.968C448.71 70.3707 448.514 69.8713 448.187 69.47C447.87 69.0593 447.389 68.854 446.745 68.854C446.157 68.854 445.653 69.0547 445.233 69.456C444.822 69.848 444.575 70.3567 444.491 70.982L448.775 70.968ZM443.273 71.444C443.273 70.7347 443.418 70.1047 443.707 69.554C443.996 69.0033 444.402 68.574 444.925 68.266C445.448 67.958 446.04 67.804 446.703 67.804C448.094 67.804 449.088 68.4573 449.685 69.764C449.881 70.2867 449.979 70.842 449.979 71.43C449.979 71.5887 449.974 71.7193 449.965 71.822C449.956 71.9153 449.951 71.9667 449.951 71.976H444.491C444.584 72.5827 444.836 73.0773 445.247 73.46C445.667 73.8427 446.157 74.034 446.717 74.034C447.165 74.034 447.534 73.964 447.823 73.824C448.122 73.684 448.327 73.5487 448.439 73.418C448.56 73.278 448.668 73.138 448.761 72.998L449.741 73.502C449.526 73.9407 449.158 74.314 448.635 74.622C448.122 74.93 447.478 75.084 446.703 75.084C446.04 75.084 445.448 74.93 444.925 74.622C444.402 74.314 443.996 73.8847 443.707 73.334C443.418 72.7833 443.273 72.1533 443.273 71.444ZM454.833 71.444L457.535 75.056H456.009L454.147 72.48L452.313 75.056H450.773L453.447 71.444L450.745 67.818H452.299L454.147 70.436L456.009 67.818H457.549L454.833 71.444ZM461.452 75.084C460.855 75.084 460.365 74.888 459.982 74.496C459.6 74.104 459.399 73.6 459.38 72.984V68.938H458.176V67.86H459.38V65.942H460.612V67.86H462.166V68.938H460.612V72.9C460.612 73.18 460.692 73.4227 460.85 73.628C461.009 73.8333 461.21 73.936 461.452 73.936C461.592 73.936 461.718 73.9267 461.83 73.908C461.942 73.8893 462.054 73.866 462.166 73.838L462.39 74.972C462.036 75.0467 461.723 75.084 461.452 75.084Z" fill="#121212"/>
<circle cx="417" cy="100" r="9.5" fill="#EBF4FE" stroke="#368FF7"/>
<circle cx="417" cy="100" r="5" fill="#368FF7"/>
<path d="M443.358 95.928H440.25V105.056H439.018V95.928H435.896V94.836H443.358V95.928ZM448.775 100.968C448.71 100.371 448.514 99.8713 448.187 99.47C447.87 99.0593 447.389 98.854 446.745 98.854C446.157 98.854 445.653 99.0547 445.233 99.456C444.822 99.848 444.575 100.357 444.491 100.982L448.775 100.968ZM443.273 101.444C443.273 100.735 443.418 100.105 443.707 99.554C443.996 99.0033 444.402 98.574 444.925 98.266C445.448 97.958 446.04 97.804 446.703 97.804C448.094 97.804 449.088 98.4573 449.685 99.764C449.881 100.287 449.979 100.842 449.979 101.43C449.979 101.589 449.974 101.719 449.965 101.822C449.956 101.915 449.951 101.967 449.951 101.976H444.491C444.584 102.583 444.836 103.077 445.247 103.46C445.667 103.843 446.157 104.034 446.717 104.034C447.165 104.034 447.534 103.964 447.823 103.824C448.122 103.684 448.327 103.549 448.439 103.418C448.56 103.278 448.668 103.138 448.761 102.998L449.741 103.502C449.526 103.941 449.158 104.314 448.635 104.622C448.122 104.93 447.478 105.084 446.703 105.084C446.04 105.084 445.448 104.93 444.925 104.622C444.402 104.314 443.996 103.885 443.707 103.334C443.418 102.783 443.273 102.153 443.273 101.444ZM454.833 101.444L457.535 105.056H456.009L454.147 102.48L452.313 105.056H450.773L453.447 101.444L450.745 97.818H452.299L454.147 100.436L456.009 97.818H457.549L454.833 101.444ZM461.452 105.084C460.855 105.084 460.365 104.888 459.982 104.496C459.6 104.104 459.399 103.6 459.38 102.984V98.938H458.176V97.86H459.38V95.942H460.612V97.86H462.166V98.938H460.612V102.9C460.612 103.18 460.692 103.423 460.85 103.628C461.009 103.833 461.21 103.936 461.452 103.936C461.592 103.936 461.718 103.927 461.83 103.908C461.942 103.889 462.054 103.866 462.166 103.838L462.39 104.972C462.036 105.047 461.723 105.084 461.452 105.084Z" fill="#121212"/>
<path d="M468 51L468 59" stroke="#6B6B6B" stroke-width="1.2"/>
<rect x="468" y="51" width="8.00001" height="61" transform="rotate(90 468 51)" fill="#FF0000" fill-opacity="0.1"/>
<path d="M479.172 58.964C479.76 58.964 480.236 58.796 480.6 58.46C480.973 58.1147 481.16 57.6713 481.16 57.13C481.16 56.5887 480.973 56.15 480.6 55.814C480.236 55.4687 479.76 55.296 479.172 55.296C478.575 55.296 478.089 55.4687 477.716 55.814C477.343 56.15 477.156 56.5887 477.156 57.13C477.156 57.6713 477.343 58.1147 477.716 58.46C478.089 58.796 478.575 58.964 479.172 58.964ZM475.7 57.158C475.7 56.7007 475.859 56.2433 476.176 55.786C476.493 55.3193 476.899 54.9507 477.394 54.68C476.983 54.4 476.647 54.0547 476.386 53.644C476.125 53.2333 475.994 52.846 475.994 52.482C475.994 51.9407 476.129 51.46 476.4 51.04C476.671 50.6107 477.044 50.2793 477.52 50.046C478.005 49.8033 478.556 49.682 479.172 49.682C479.788 49.682 480.334 49.8033 480.81 50.046C481.295 50.2793 481.673 50.6107 481.944 51.04C482.215 51.46 482.35 51.9407 482.35 52.482C482.35 52.8553 482.219 53.2473 481.958 53.658C481.697 54.0687 481.361 54.4093 480.95 54.68C481.445 54.96 481.846 55.3287 482.154 55.786C482.462 56.2433 482.616 56.7007 482.616 57.158C482.616 57.746 482.471 58.2733 482.182 58.74C481.893 59.1973 481.487 59.5567 480.964 59.818C480.441 60.07 479.844 60.196 479.172 60.196C478.5 60.196 477.898 60.07 477.366 59.818C476.843 59.5567 476.433 59.1973 476.134 58.74C475.845 58.2733 475.7 57.746 475.7 57.158ZM477.45 52.482C477.45 52.9487 477.609 53.3267 477.926 53.616C478.243 53.9053 478.659 54.05 479.172 54.05C479.676 54.05 480.087 53.9053 480.404 53.616C480.731 53.3173 480.894 52.9393 480.894 52.482C480.894 52.0247 480.731 51.6513 480.404 51.362C480.087 51.0633 479.676 50.914 479.172 50.914C478.659 50.914 478.243 51.0587 477.926 51.348C477.609 51.6373 477.45 52.0153 477.45 52.482ZM487.933 58.964C488.558 58.964 489.067 58.7353 489.459 58.278C489.851 57.8113 490.047 57.2047 490.047 56.458C490.047 55.7207 489.851 55.1233 489.459 54.666C489.067 54.2087 488.558 53.98 487.933 53.98C487.541 53.98 487.177 54.092 486.841 54.316C486.505 54.54 486.239 54.8433 486.043 55.226C485.847 55.5993 485.749 56.01 485.749 56.458C485.749 56.9153 485.847 57.3353 486.043 57.718C486.239 58.1007 486.505 58.404 486.841 58.628C487.177 58.852 487.541 58.964 487.933 58.964ZM484.279 52.776H485.735V54.036C485.987 53.616 486.337 53.3033 486.785 53.098C487.233 52.8833 487.644 52.776 488.017 52.776C488.698 52.776 489.3 52.9347 489.823 53.252C490.355 53.56 490.766 53.994 491.055 54.554C491.354 55.1047 491.503 55.7393 491.503 56.458C491.503 57.1767 491.354 57.8207 491.055 58.39C490.766 58.95 490.355 59.3887 489.823 59.706C489.3 60.014 488.698 60.168 488.017 60.168C487.644 60.168 487.233 60.0607 486.785 59.846C486.337 59.622 485.987 59.3 485.735 58.88V63.234H484.279V52.776ZM496.646 56.444L499.348 60.098H497.542L495.792 57.62L494.056 60.098H492.25L494.91 56.444L492.194 52.776H494.014L495.792 55.324L497.556 52.776H499.376L496.646 56.444Z" fill="#6B6B6B"/>
<path d="M468 81L468 89" stroke="#6B6B6B" stroke-width="1.2"/>
<rect x="468" y="81" width="8.00001" height="61" transform="rotate(90 468 81)" fill="#FF0000" fill-opacity="0.1"/>
<path d="M479.172 88.964C479.76 88.964 480.236 88.796 480.6 88.46C480.973 88.1147 481.16 87.6713 481.16 87.13C481.16 86.5887 480.973 86.15 480.6 85.814C480.236 85.4687 479.76 85.296 479.172 85.296C478.575 85.296 478.089 85.4687 477.716 85.814C477.343 86.15 477.156 86.5887 477.156 87.13C477.156 87.6713 477.343 88.1147 477.716 88.46C478.089 88.796 478.575 88.964 479.172 88.964ZM475.7 87.158C475.7 86.7007 475.859 86.2433 476.176 85.786C476.493 85.3193 476.899 84.9507 477.394 84.68C476.983 84.4 476.647 84.0547 476.386 83.644C476.125 83.2333 475.994 82.846 475.994 82.482C475.994 81.9407 476.129 81.46 476.4 81.04C476.671 80.6107 477.044 80.2793 477.52 80.046C478.005 79.8033 478.556 79.682 479.172 79.682C479.788 79.682 480.334 79.8033 480.81 80.046C481.295 80.2793 481.673 80.6107 481.944 81.04C482.215 81.46 482.35 81.9407 482.35 82.482C482.35 82.8553 482.219 83.2473 481.958 83.658C481.697 84.0687 481.361 84.4093 480.95 84.68C481.445 84.96 481.846 85.3287 482.154 85.786C482.462 86.2433 482.616 86.7007 482.616 87.158C482.616 87.746 482.471 88.2733 482.182 88.74C481.893 89.1973 481.487 89.5567 480.964 89.818C480.441 90.07 479.844 90.196 479.172 90.196C478.5 90.196 477.898 90.07 477.366 89.818C476.843 89.5567 476.433 89.1973 476.134 88.74C475.845 88.2733 475.7 87.746 475.7 87.158ZM477.45 82.482C477.45 82.9487 477.609 83.3267 477.926 83.616C478.243 83.9053 478.659 84.05 479.172 84.05C479.676 84.05 480.087 83.9053 480.404 83.616C480.731 83.3173 480.894 82.9393 480.894 82.482C480.894 82.0247 480.731 81.6513 480.404 81.362C480.087 81.0633 479.676 80.914 479.172 80.914C478.659 80.914 478.243 81.0587 477.926 81.348C477.609 81.6373 477.45 82.0153 477.45 82.482ZM487.933 88.964C488.558 88.964 489.067 88.7353 489.459 88.278C489.851 87.8113 490.047 87.2047 490.047 86.458C490.047 85.7207 489.851 85.1233 489.459 84.666C489.067 84.2087 488.558 83.98 487.933 83.98C487.541 83.98 487.177 84.092 486.841 84.316C486.505 84.54 486.239 84.8433 486.043 85.226C485.847 85.5993 485.749 86.01 485.749 86.458C485.749 86.9153 485.847 87.3353 486.043 87.718C486.239 88.1007 486.505 88.404 486.841 88.628C487.177 88.852 487.541 88.964 487.933 88.964ZM484.279 82.776H485.735V84.036C485.987 83.616 486.337 83.3033 486.785 83.098C487.233 82.8833 487.644 82.776 488.017 82.776C488.698 82.776 489.3 82.9347 489.823 83.252C490.355 83.56 490.766 83.994 491.055 84.554C491.354 85.1047 491.503 85.7393 491.503 86.458C491.503 87.1767 491.354 87.8207 491.055 88.39C490.766 88.95 490.355 89.3887 489.823 89.706C489.3 90.014 488.698 90.168 488.017 90.168C487.644 90.168 487.233 90.0607 486.785 89.846C486.337 89.622 485.987 89.3 485.735 88.88V93.234H484.279V82.776ZM496.646 86.444L499.348 90.098H497.542L495.792 87.62L494.056 90.098H492.25L494.91 86.444L492.194 82.776H494.014L495.792 85.324L497.556 82.776H499.376L496.646 86.444Z" fill="#6B6B6B"/>
</svg>

<svg xmlns="http://www.w3.org/2000/svg" width="908" height="140" fill="none" viewBox="0 0 908 140"><path fill="#fff" d="M0 0h908v140H0z"/><circle cx="417" cy="40" r="9.5" fill="#EBF4FE" stroke="#368FF7"/><circle cx="417" cy="40" r="5" fill="#368FF7"/><path fill="#121212" d="M443.358 35.928h-3.108v9.128h-1.232v-9.128h-3.122v-1.092h7.462zm5.417 5.04q-.097-.896-.588-1.498-.476-.615-1.442-.616-.882 0-1.512.602-.616.588-.742 1.526zm-5.502.476q0-1.065.434-1.89.433-.825 1.218-1.288.784-.462 1.778-.462 2.087 0 2.982 1.96.294.784.294 1.666 0 .239-.014.392l-.014.154h-5.46q.14.91.756 1.484.63.574 1.47.574.672 0 1.106-.21.448-.21.616-.406.182-.21.322-.42l.98.504q-.322.658-1.106 1.12-.77.462-1.932.462-.994 0-1.778-.462a3.17 3.17 0 0 1-1.218-1.288q-.434-.825-.434-1.89m11.56 0 2.702 3.612h-1.526l-1.862-2.576-1.834 2.576h-1.54l2.674-3.612-2.702-3.626h1.554l1.848 2.618 1.862-2.618h1.54zm6.619 3.64q-.895 0-1.47-.588-.573-.588-.602-1.512v-4.046h-1.204V37.86h1.204v-1.918h1.232v1.918h1.554v1.078h-1.554V42.9q0 .42.238.728.239.308.602.308.21 0 .378-.028t.336-.07l.224 1.134a4.6 4.6 0 0 1-.938.112"/><circle cx="417" cy="70" r="9.5" fill="#EBF4FE" stroke="#368FF7"/><circle cx="417" cy="70" r="5" fill="#368FF7"/><path fill="#121212" d="M443.358 65.928h-3.108v9.128h-1.232v-9.128h-3.122v-1.092h7.462zm5.417 5.04q-.097-.896-.588-1.498-.476-.615-1.442-.616-.882 0-1.512.602-.616.587-.742 1.526zm-5.502.476q0-1.065.434-1.89.433-.826 1.218-1.288t1.778-.462q2.087 0 2.982 1.96.294.784.294 1.666 0 .239-.014.392l-.014.154h-5.46q.14.91.756 1.484.63.574 1.47.574.672 0 1.106-.21.448-.21.616-.406.182-.21.322-.42l.98.504q-.322.658-1.106 1.12-.77.462-1.932.462-.994 0-1.778-.462a3.17 3.17 0 0 1-1.218-1.288q-.434-.825-.434-1.89m11.56 0 2.702 3.612h-1.526l-1.862-2.576-1.834 2.576h-1.54l2.674-3.612-2.702-3.626h1.554l1.848 2.618 1.862-2.618h1.54zm6.619 3.64q-.895 0-1.47-.588-.573-.588-.602-1.512v-4.046h-1.204V67.86h1.204v-1.918h1.232v1.918h1.554v1.078h-1.554V72.9q0 .42.238.728.239.308.602.308.21 0 .378-.028t.336-.07l.224 1.134a4.6 4.6 0 0 1-.938.112"/><circle cx="417" cy="100" r="9.5" fill="#EBF4FE" stroke="#368FF7"/><circle cx="417" cy="100" r="5" fill="#368FF7"/><path fill="#121212" d="M443.358 95.928h-3.108v9.128h-1.232v-9.128h-3.122v-1.092h7.462zm5.417 5.04q-.097-.896-.588-1.498-.476-.615-1.442-.616-.882 0-1.512.602-.616.588-.742 1.526zm-5.502.476q0-1.064.434-1.89.433-.826 1.218-1.288t1.778-.462q2.087 0 2.982 1.96.294.784.294 1.666a5 5 0 0 1-.028.546h-5.46q.14.91.756 1.484.63.574 1.47.574.672 0 1.106-.21.448-.21.616-.406.182-.21.322-.42l.98.504q-.322.658-1.106 1.12-.77.462-1.932.462-.994 0-1.778-.462a3.17 3.17 0 0 1-1.218-1.288q-.434-.827-.434-1.89m11.56 0 2.702 3.612h-1.526l-1.862-2.576-1.834 2.576h-1.54l2.674-3.612-2.702-3.626h1.554l1.848 2.618 1.862-2.618h1.54zm6.619 3.64q-.895 0-1.47-.588-.573-.588-.602-1.512v-4.046h-1.204V97.86h1.204v-1.918h1.232v1.918h1.554v1.078h-1.554v3.962q0 .42.238.728.239.308.602.308.21 0 .378-.028t.336-.07l.224 1.134a4.6 4.6 0 0 1-.938.112"/><path stroke="#6B6B6B" stroke-width="1.2" d="M468 51v8"/><path fill="red" fill-opacity=".1" d="M468 51v8h-61v-8z"/><path fill="#6B6B6B" d="M479.172 58.964q.882 0 1.428-.504.56-.518.56-1.33t-.56-1.316q-.546-.518-1.428-.518-.896 0-1.456.518-.56.504-.56 1.316t.56 1.33q.56.504 1.456.504m-3.472-1.806q0-.686.476-1.372a3.46 3.46 0 0 1 1.218-1.106 3.5 3.5 0 0 1-1.008-1.036q-.392-.616-.392-1.162a2.6 2.6 0 0 1 .406-1.442q.406-.644 1.12-.994.728-.364 1.652-.364t1.638.364q.728.35 1.134.994.406.63.406 1.442 0 .56-.392 1.176t-1.008 1.022q.742.42 1.204 1.106t.462 1.372q0 .882-.434 1.582a3 3 0 0 1-1.218 1.078q-.784.378-1.792.378t-1.806-.378a3.1 3.1 0 0 1-1.232-1.078 2.94 2.94 0 0 1-.434-1.582m1.75-4.676q0 .7.476 1.134t1.246.434q.756 0 1.232-.434.49-.448.49-1.134t-.49-1.12q-.476-.448-1.232-.448-.77 0-1.246.434t-.476 1.134m10.483 6.482q.938 0 1.526-.686.588-.7.588-1.82 0-1.106-.588-1.792t-1.526-.686a1.93 1.93 0 0 0-1.092.336 2.37 2.37 0 0 0-.798.91 2.6 2.6 0 0 0-.294 1.232q0 .686.294 1.26t.798.91 1.092.336m-3.654-6.188h1.456v1.26q.378-.63 1.05-.938.672-.322 1.232-.322 1.022 0 1.806.476.798.462 1.232 1.302.448.825.448 1.904t-.448 1.932q-.434.84-1.232 1.316-.784.462-1.806.462-.56 0-1.232-.322a2.5 2.5 0 0 1-1.05-.966v4.354h-1.456zm12.367 3.668 2.702 3.654h-1.806l-1.75-2.478-1.736 2.478h-1.806l2.66-3.654-2.716-3.668h1.82l1.778 2.548 1.764-2.548h1.82z"/><path stroke="#6B6B6B" stroke-width="1.2" d="M468 81v8"/><path fill="red" fill-opacity=".1" d="M468 81v8h-61v-8z"/><path fill="#6B6B6B" d="M479.172 88.964q.882 0 1.428-.504.56-.518.56-1.33t-.56-1.316q-.546-.518-1.428-.518-.896 0-1.456.518-.56.504-.56 1.316t.56 1.33q.56.504 1.456.504m-3.472-1.806q0-.686.476-1.372a3.46 3.46 0 0 1 1.218-1.106 3.5 3.5 0 0 1-1.008-1.036q-.392-.615-.392-1.162a2.6 2.6 0 0 1 .406-1.442q.406-.644 1.12-.994.728-.364 1.652-.364t1.638.364q.728.35 1.134.994.406.63.406 1.442 0 .56-.392 1.176t-1.008 1.022q.742.42 1.204 1.106t.462 1.372q0 .882-.434 1.582a3 3 0 0 1-1.218 1.078q-.784.378-1.792.378t-1.806-.378a3.1 3.1 0 0 1-1.232-1.078 2.94 2.94 0 0 1-.434-1.582m1.75-4.676q0 .7.476 1.134t1.246.434q.756 0 1.232-.434.49-.449.49-1.134t-.49-1.12q-.476-.448-1.232-.448-.77 0-1.246.434t-.476 1.134m10.483 6.482q.938 0 1.526-.686.588-.7.588-1.82 0-1.106-.588-1.792t-1.526-.686a1.93 1.93 0 0 0-1.092.336 2.37 2.37 0 0 0-.798.91 2.6 2.6 0 0 0-.294 1.232q0 .685.294 1.26.294.574.798.91t1.092.336m-3.654-6.188h1.456v1.26q.378-.63 1.05-.938.672-.322 1.232-.322 1.022 0 1.806.476.798.462 1.232 1.302.448.825.448 1.904t-.448 1.932q-.434.84-1.232 1.316-.784.462-1.806.462-.56 0-1.232-.322a2.5 2.5 0 0 1-1.05-.966v4.354h-1.456zm12.367 3.668 2.702 3.654h-1.806l-1.75-2.478-1.736 2.478h-1.806l2.66-3.654-2.716-3.668h1.82l1.778 2.548 1.764-2.548h1.82z"/></svg>
